X:82
T:Saddle The Pony
S:The Session: https://thesession.org/tunes/307#setting307
C:Traditional
R:jig
K:G
M:6/8
L:1/8
Q:1/4=113
D |: GBA G2B| def gdB| GBA G2B| AFD AFD| 
| GBA G2B| def gfg| efe dBA|1 BGG G2 D:|2 BGG G2 d |] 
|: efe edB| def gfg| efe edB| dBA ABd|
! efe edB| def gfg| efe dBA|1 BGG G2 d:|2 BGG G3 |]

